public/experience.svg

<svg xmlns="http://www.w3.org/2000/svg" width="3159" height="570" fill="none"><path fill="#CDCDCD" fill-opacity=".45" d="M.95 450V24.86h286.472v74.109H90.836v101.303h181.847v74.108H90.836v101.511h197.417V450H.951Zm430.175-318.855 58.54 111.474 59.993-111.474h90.716l-92.377 159.427L642.865 450h-90.301l-62.899-110.229L427.804 450h-91.339l94.66-159.428-91.339-159.427h91.339Zm261.769 438.426V131.145h87.187v53.557h3.944c3.875-8.58 9.48-17.299 16.814-26.156 7.474-8.995 17.161-16.468 29.063-22.419 12.04-6.089 26.986-9.134 44.839-9.134 23.25 0 44.7 6.089 64.352 18.268 19.652 12.04 35.359 30.238 47.123 54.595 11.763 24.219 17.644 54.596 17.644 91.132 0 35.566-5.743 65.597-17.229 90.093-11.348 24.357-26.848 42.832-46.5 55.426-19.513 12.455-41.379 18.683-65.598 18.683-17.16 0-31.761-2.837-43.801-8.511-11.902-5.674-21.658-12.802-29.27-21.382-7.611-8.719-13.424-17.507-17.437-26.364h-2.699v170.638h-88.432Zm86.564-278.999c0 18.96 2.629 35.498 7.888 49.614s12.871 25.118 22.835 33.006c9.964 7.75 22.073 11.625 36.328 11.625 14.393 0 26.571-3.944 36.535-11.832 9.965-8.027 17.507-19.098 22.627-33.214 5.259-14.255 7.889-30.654 7.889-49.199 0-18.406-2.56-34.598-7.681-48.575-5.12-13.978-12.663-24.911-22.627-32.799-9.964-7.889-22.212-11.833-36.743-11.833-14.393 0-26.571 3.806-36.536 11.418-9.825 7.611-17.368 18.406-22.627 32.383-5.259 13.978-7.888 30.447-7.888 49.406Zm428.672 165.656c-32.8 0-61.03-6.643-84.7-19.929-23.53-13.424-41.65-32.384-54.39-56.879-12.73-24.634-19.09-53.765-19.09-87.395 0-32.798 6.36-61.584 19.09-86.356 12.74-24.772 30.66-44.078 53.77-57.917 23.25-13.839 50.51-20.759 81.79-20.759 21.03 0 40.62 3.391 58.75 10.172 18.26 6.643 34.18 16.676 47.74 30.1 13.7 13.424 24.36 30.308 31.97 50.652 7.61 20.205 11.42 43.87 11.42 70.995v24.287h-269.24v-54.803h185.99c0-12.732-2.76-24.011-8.3-33.837-5.54-9.826-13.22-17.506-23.04-23.042-9.69-5.674-20.97-8.511-33.84-8.511-13.42 0-25.32 3.114-35.7 9.341-10.24 6.09-18.27 14.324-24.08 24.703-5.82 10.241-8.79 21.659-8.93 34.252v52.105c0 15.777 2.91 29.408 8.72 40.895 5.95 11.486 14.32 20.344 25.12 26.571 10.79 6.228 23.59 9.342 38.4 9.342 9.83 0 18.82-1.384 26.99-4.152 8.16-2.768 15.15-6.92 20.96-12.455 5.82-5.536 10.24-12.317 13.29-20.344l81.79 5.397c-4.15 19.652-12.66 36.813-25.53 51.482-12.74 14.531-29.21 25.879-49.41 34.045-20.07 8.026-43.25 12.04-69.54 12.04ZM1412.19 450V131.145h85.73v55.633h3.32c5.81-19.79 15.57-34.736 29.27-44.839 13.7-10.241 29.48-15.361 47.33-15.361 4.43 0 9.2.277 14.33.83 5.12.554 9.61 1.315 13.49 2.284v78.468c-4.15-1.246-9.9-2.353-17.23-3.322-7.34-.968-14.05-1.453-20.14-1.453-13.01 0-24.63 2.837-34.87 8.511-10.1 5.536-18.13 13.286-24.08 23.25-5.81 9.965-8.72 21.451-8.72 34.46V450h-88.43Zm239.19 0V131.145h88.43V450h-88.43Zm44.42-359.958c-13.14 0-24.42-4.36-33.83-13.078-9.28-8.857-13.91-19.444-13.91-31.76 0-12.18 4.63-22.628 13.91-31.347C1671.38 5 1682.66.572 1695.8.572c13.15 0 24.36 4.428 33.63 13.285 9.41 8.72 14.12 19.168 14.12 31.346 0 12.317-4.71 22.904-14.12 31.761-9.27 8.719-20.48 13.078-33.63 13.078Zm260.16 366.186c-32.8 0-61.03-6.643-84.69-19.929-23.53-13.424-41.66-32.384-54.39-56.879-12.73-24.634-19.1-53.765-19.1-87.395 0-32.798 6.37-61.584 19.1-86.356 12.73-24.772 30.65-44.078 53.76-57.917 23.25-13.839 50.52-20.759 81.79-20.759 21.04 0 40.62 3.391 58.75 10.172 18.27 6.643 34.18 16.676 47.75 30.1 13.7 13.424 24.35 30.308 31.97 50.652 7.61 20.205 11.41 43.87 11.41 70.995v24.287h-269.24v-54.803h186c0-12.732-2.77-24.011-8.3-33.837-5.54-9.826-13.22-17.506-23.05-23.042-9.68-5.674-20.96-8.511-33.83-8.511-13.43 0-25.33 3.114-35.71 9.341-10.24 6.09-18.27 14.324-24.08 24.703-5.81 10.241-8.79 21.659-8.92 34.252v52.105c0 15.777 2.9 29.408 8.71 40.895 5.96 11.486 14.33 20.344 25.12 26.571 10.8 6.228 23.6 9.342 38.41 9.342 9.82 0 18.82-1.384 26.98-4.152 8.17-2.768 15.16-6.92 20.97-12.455 5.81-5.536 10.24-12.317 13.29-20.344l81.78 5.397c-4.15 19.652-12.66 36.813-25.53 51.482-12.73 14.531-29.2 25.879-49.4 34.045-20.07 8.026-43.25 12.04-69.55 12.04Zm292.49-190.566V450h-88.43V131.145h84.28v56.256h3.74c7.06-18.544 18.89-33.214 35.5-44.009 16.6-10.933 36.74-16.399 60.41-16.399 22.14 0 41.44 4.844 57.91 14.531 16.47 9.688 29.27 23.527 38.41 41.518 9.13 17.852 13.7 39.165 13.7 63.937V450h-88.44V262.756c.14-19.514-4.84-34.737-14.94-45.67-10.1-11.071-24.01-16.607-41.73-16.607-11.9 0-22.42 2.56-31.55 7.681-9 5.12-16.05 12.594-21.17 22.419-4.99 9.688-7.55 21.382-7.69 35.083Zm419.28 190.566c-32.66 0-60.75-6.92-84.28-20.759-23.39-13.978-41.38-33.353-53.97-58.125-12.46-24.772-18.69-53.281-18.69-85.526 0-32.661 6.3-61.308 18.9-85.942 12.73-24.772 30.79-44.077 54.18-57.917 23.38-13.977 51.2-20.966 83.45-20.966 27.81 0 52.17 5.051 73.07 15.154 20.89 10.102 37.43 24.288 49.61 42.555 12.18 18.268 18.89 39.719 20.14 64.353h-83.45c-2.36-15.915-8.58-28.717-18.69-38.404-9.96-9.826-23.04-14.739-39.23-14.739-13.7 0-25.67 3.737-35.91 11.21-10.11 7.335-17.99 18.06-23.67 32.176-5.67 14.116-8.51 31.207-8.51 51.274 0 20.344 2.77 37.643 8.3 51.897 5.68 14.255 13.64 25.119 23.88 32.592 10.24 7.473 22.21 11.209 35.91 11.209 10.1 0 19.17-2.075 27.19-6.227 8.17-4.152 14.88-10.172 20.14-18.06 5.4-8.027 8.93-17.645 10.59-28.855h83.45c-1.39 24.357-8.03 45.808-19.93 64.352-11.77 18.406-28.03 32.799-48.79 43.179-20.75 10.379-45.32 15.569-73.69 15.569Zm344.34 0c-32.8 0-61.03-6.643-84.7-19.929-23.52-13.424-41.65-32.384-54.39-56.879-12.73-24.634-19.09-53.765-19.09-87.395 0-32.798 6.36-61.584 19.09-86.356 12.74-24.772 30.66-44.078 53.77-57.917 23.25-13.839 50.51-20.759 81.79-20.759 21.03 0 40.62 3.391 58.75 10.172 18.26 6.643 34.18 16.676 47.74 30.1 13.7 13.424 24.36 30.308 31.97 50.652 7.61 20.205 11.42 43.87 11.42 70.995v24.287h-269.24v-54.803h185.99c0-12.732-2.76-24.011-8.3-33.837-5.53-9.826-13.22-17.506-23.04-23.042-9.69-5.674-20.97-8.511-33.84-8.511-13.42 0-25.32 3.114-35.7 9.341-10.24 6.09-18.27 14.324-24.08 24.703-5.82 10.241-8.79 21.659-8.93 34.252v52.105c0 15.777 2.91 29.408 8.72 40.895 5.95 11.486 14.32 20.344 25.12 26.571 10.79 6.228 23.59 9.342 38.4 9.342 9.83 0 18.82-1.384 26.99-4.152 8.16-2.768 15.15-6.92 20.96-12.455 5.82-5.536 10.24-12.317 13.29-20.344l81.79 5.397c-4.15 19.652-12.66 36.813-25.53 51.482-12.74 14.531-29.21 25.879-49.41 34.045-20.07 8.026-43.25 12.04-69.54 12.04Z"/></svg>

<svg width="3159" height="570" viewBox="0 0 3159 570" fill="none" xmlns="http://www.w3.org/2000/svg">
<path d="M0.950679 450V24.8596H287.422V98.9685H90.8363V200.272H272.683V274.38H90.8363V375.891H288.253V450H0.950679ZM431.125 131.145L489.665 242.619L549.658 131.145H640.374L547.997 290.572L642.865 450H552.564L489.665 339.771L427.804 450H336.465L431.125 290.572L339.786 131.145H431.125ZM692.894 569.571V131.145H780.081V184.702H784.025C787.9 176.122 793.505 167.403 800.839 158.546C808.313 149.551 818 142.078 829.902 136.127C841.942 130.038 856.888 126.993 874.741 126.993C897.991 126.993 919.441 133.082 939.093 145.261C958.745 157.301 974.452 175.499 986.216 199.856C997.979 224.075 1003.86 254.452 1003.86 290.988C1003.86 326.554 998.117 356.585 986.631 381.081C975.283 405.438 959.783 423.913 940.131 436.507C920.618 448.962 898.752 455.19 874.533 455.19C857.373 455.19 842.772 452.353 830.732 446.679C818.83 441.005 809.074 433.877 801.462 425.297C793.851 416.578 788.038 407.79 784.025 398.933H781.326V569.571H692.894ZM779.458 290.572C779.458 309.532 782.087 326.07 787.346 340.186C792.605 354.302 800.217 365.304 810.181 373.192C820.145 380.942 832.254 384.817 846.509 384.817C860.902 384.817 873.08 380.873 883.044 372.985C893.009 364.958 900.551 353.887 905.671 339.771C910.93 325.516 913.56 309.117 913.56 290.572C913.56 272.166 911 255.974 905.879 241.997C900.759 228.019 893.216 217.086 883.252 209.198C873.288 201.309 861.04 197.365 846.509 197.365C832.116 197.365 819.938 201.171 809.973 208.783C800.148 216.394 792.605 227.189 787.346 241.166C782.087 255.144 779.458 271.613 779.458 290.572ZM1208.13 456.228C1175.33 456.228 1147.1 449.585 1123.43 436.299C1099.9 422.875 1081.78 403.915 1069.04 379.42C1056.31 354.786 1049.95 325.655 1049.95 292.025C1049.95 259.227 1056.31 230.441 1069.04 205.669C1081.78 180.897 1099.7 161.591 1122.81 147.752C1146.06 133.913 1173.32 126.993 1204.6 126.993C1225.63 126.993 1245.22 130.384 1263.35 137.165C1281.61 143.808 1297.53 153.841 1311.09 167.265C1324.79 180.689 1335.45 197.573 1343.06 217.917C1350.67 238.122 1354.48 261.787 1354.48 288.912V313.199H1085.24V258.396H1271.23C1271.23 245.664 1268.47 234.385 1262.93 224.559C1257.39 214.733 1249.71 207.053 1239.89 201.517C1230.2 195.843 1218.92 193.006 1206.05 193.006C1192.63 193.006 1180.73 196.12 1170.35 202.347C1160.11 208.437 1152.08 216.671 1146.27 227.05C1140.45 237.291 1137.48 248.709 1137.34 261.302V313.407C1137.34 329.184 1140.25 342.815 1146.06 354.302C1152.01 365.788 1160.38 374.646 1171.18 380.873C1181.97 387.101 1194.77 390.215 1209.58 390.215C1219.41 390.215 1228.4 388.831 1236.57 386.063C1244.73 383.295 1251.72 379.143 1257.53 373.608C1263.35 368.072 1267.77 361.291 1270.82 353.264L1352.61 358.661C1348.46 378.313 1339.95 395.474 1327.08 410.143C1314.34 424.674 1297.87 436.022 1277.67 444.188C1257.6 452.214 1234.42 456.228 1208.13 456.228ZM1412.19 450V131.145H1497.92V186.778H1501.24C1507.05 166.988 1516.81 152.042 1530.51 141.939C1544.21 131.698 1559.99 126.578 1577.84 126.578C1582.27 126.578 1587.04 126.855 1592.17 127.408C1597.29 127.962 1601.78 128.723 1605.66 129.692V208.16C1601.51 206.914 1595.76 205.807 1588.43 204.838C1581.09 203.87 1574.38 203.385 1568.29 203.385C1555.28 203.385 1543.66 206.222 1533.42 211.896C1523.32 217.432 1515.29 225.182 1509.34 235.146C1503.53 245.111 1500.62 256.597 1500.62 269.606V450H1412.19ZM1651.38 450V131.145H1739.81V450H1651.38ZM1695.8 90.0422C1682.66 90.0422 1671.38 85.6829 1661.97 76.9642C1652.69 68.1071 1648.06 57.5201 1648.06 45.2032C1648.06 33.0247 1652.69 22.5761 1661.97 13.8574C1671.38 5.00032 1682.66 0.571769 1695.8 0.571769C1708.95 0.571769 1720.16 5.00032 1729.43 13.8574C1738.84 22.5761 1743.55 33.0247 1743.55 45.2032C1743.55 57.5201 1738.84 68.1071 1729.43 76.9642C1720.16 85.6829 1708.95 90.0422 1695.8 90.0422ZM1955.96 456.228C1923.16 456.228 1894.93 449.585 1871.27 436.299C1847.74 422.875 1829.61 403.915 1816.88 379.42C1804.15 354.786 1797.78 325.655 1797.78 292.025C1797.78 259.227 1804.15 230.441 1816.88 205.669C1829.61 180.897 1847.53 161.591 1870.64 147.752C1893.89 133.913 1921.16 126.993 1952.43 126.993C1973.47 126.993 1993.05 130.384 2011.18 137.165C2029.45 143.808 2045.36 153.841 2058.93 167.265C2072.63 180.689 2083.28 197.573 2090.9 217.917C2098.51 238.122 2102.31 261.787 2102.31 288.912V313.199H1833.07V258.396H2019.07C2019.07 245.664 2016.3 234.385 2010.77 224.559C2005.23 214.733 1997.55 207.053 1987.72 201.517C1978.04 195.843 1966.76 193.006 1953.89 193.006C1940.46 193.006 1928.56 196.12 1918.18 202.347C1907.94 208.437 1899.91 216.671 1894.1 227.05C1888.29 237.291 1885.31 248.709 1885.18 261.302V313.407C1885.18 329.184 1888.08 342.815 1893.89 354.302C1899.85 365.788 1908.22 374.646 1919.01 380.873C1929.81 387.101 1942.61 390.215 1957.42 390.215C1967.24 390.215 1976.24 388.831 1984.4 386.063C1992.57 383.295 1999.56 379.143 2005.37 373.608C2011.18 368.072 2015.61 361.291 2018.66 353.264L2100.44 358.661C2096.29 378.313 2087.78 395.474 2074.91 410.143C2062.18 424.674 2045.71 436.022 2025.51 444.188C2005.44 452.214 1982.26 456.228 1955.96 456.228ZM2248.45 265.662V450H2160.02V131.145H2244.3V187.401H2248.04C2255.1 168.857 2266.93 154.187 2283.54 143.392C2300.14 132.459 2320.28 126.993 2343.95 126.993C2366.09 126.993 2385.39 131.837 2401.86 141.524C2418.33 151.212 2431.13 165.051 2440.27 183.042C2449.4 200.894 2453.97 222.207 2453.97 246.979V450H2365.53V262.756C2365.67 243.242 2360.69 228.019 2350.59 217.086C2340.49 206.015 2326.58 200.479 2308.86 200.479C2296.96 200.479 2286.44 203.039 2277.31 208.16C2268.31 213.28 2261.26 220.754 2256.14 230.579C2251.15 240.267 2248.59 251.961 2248.45 265.662ZM2667.73 456.228C2635.07 456.228 2606.98 449.308 2583.45 435.469C2560.06 421.491 2542.07 402.116 2529.48 377.344C2517.02 352.572 2510.79 324.063 2510.79 291.818C2510.79 259.157 2517.09 230.51 2529.69 205.876C2542.42 181.104 2560.48 161.799 2583.87 147.959C2607.25 133.982 2635.07 126.993 2667.32 126.993C2695.13 126.993 2719.49 132.044 2740.39 142.147C2761.28 152.249 2777.82 166.435 2790 184.702C2802.18 202.97 2808.89 224.421 2810.14 249.055H2726.69C2724.33 233.14 2718.11 220.338 2708 210.651C2698.04 200.825 2684.96 195.912 2668.77 195.912C2655.07 195.912 2643.1 199.649 2632.86 207.122C2622.75 214.457 2614.87 225.182 2609.19 239.298C2603.52 253.414 2600.68 270.505 2600.68 290.572C2600.68 310.916 2603.45 328.215 2608.98 342.469C2614.66 356.724 2622.62 367.588 2632.86 375.061C2643.1 382.534 2655.07 386.27 2668.77 386.27C2678.87 386.27 2687.94 384.195 2695.96 380.043C2704.13 375.891 2710.84 369.871 2716.1 361.983C2721.5 353.956 2725.03 344.338 2726.69 333.128H2810.14C2808.75 357.485 2802.11 378.936 2790.21 397.48C2778.44 415.886 2762.18 430.279 2741.42 440.659C2720.67 451.038 2696.1 456.228 2667.73 456.228ZM3012.07 456.228C2979.27 456.228 2951.04 449.585 2927.37 436.299C2903.85 422.875 2885.72 403.915 2872.98 379.42C2860.25 354.786 2853.89 325.655 2853.89 292.025C2853.89 259.227 2860.25 230.441 2872.98 205.669C2885.72 180.897 2903.64 161.591 2926.75 147.752C2950 133.913 2977.26 126.993 3008.54 126.993C3029.57 126.993 3049.16 130.384 3067.29 137.165C3085.55 143.808 3101.47 153.841 3115.03 167.265C3128.73 180.689 3139.39 197.573 3147 217.917C3154.61 238.122 3158.42 261.787 3158.42 288.912V313.199H2889.18V258.396H3075.17C3075.17 245.664 3072.41 234.385 3066.87 224.559C3061.34 214.733 3053.65 207.053 3043.83 201.517C3034.14 195.843 3022.86 193.006 3009.99 193.006C2996.57 193.006 2984.67 196.12 2974.29 202.347C2964.05 208.437 2956.02 216.671 2950.21 227.05C2944.39 237.291 2941.42 248.709 2941.28 261.302V313.407C2941.28 329.184 2944.19 342.815 2950 354.302C2955.95 365.788 2964.32 374.646 2975.12 380.873C2985.91 387.101 2998.71 390.215 3013.52 390.215C3023.35 390.215 3032.34 388.831 3040.51 386.063C3048.67 383.295 3055.66 379.143 3061.47 373.608C3067.29 368.072 3071.71 361.291 3074.76 353.264L3156.55 358.661C3152.4 378.313 3143.89 395.474 3131.02 410.143C3118.28 424.674 3101.81 436.022 3081.61 444.188C3061.54 452.214 3038.36 456.228 3012.07 456.228Z" fill="#E4E4E4" fill-opacity="0.45"/>
</svg>
